SVG_Azure_All/All Resources.svg

<?xml version="1.0" encoding="UTF-8" standalone="no"?>
<!-- Generated by Microsoft Visio, SVG Export All Resources.svg Page-1 -->

<svg
   xmlns:dc="http://purl.org/dc/elements/1.1/"
   xmlns:cc="http://creativecommons.org/ns#"
   xmlns:rdf="http://www.w3.org/1999/02/22-rdf-syntax-ns#"
   xmlns:svg="http://www.w3.org/2000/svg"
   xmlns="http://www.w3.org/2000/svg"
   xmlns:sodipodi="http://sodipodi.sourceforge.net/DTD/sodipodi-0.dtd"
   xmlns:inkscape="http://www.inkscape.org/namespaces/inkscape"
   width="0.78735703in"
   height="0.78735679in"
   viewBox="0 0 56.689614 56.69"
   xml:space="preserve"
   class="st2"
   version="1.1"
   id="svg28"
   sodipodi:docname="All Resources.svg"
   style="font-size:12px;overflow:visible;color-interpolation-filters:sRGB;fill:none;fill-rule:evenodd;stroke-linecap:square;stroke-miterlimit:3"
   inkscape:version="0.92.5 (2060ec1f9f, 2020-04-08)"><metadata
   id="metadata32"><rdf:RDF><cc:Work
       rdf:about=""><dc:format>image/svg+xml</dc:format><dc:type
         rdf:resource="http://purl.org/dc/dcmitype/StillImage" /></cc:Work></rdf:RDF></metadata><sodipodi:namedview
   pagecolor="#ffffff"
   bordercolor="#666666"
   borderopacity="1"
   objecttolerance="10"
   gridtolerance="10"
   guidetolerance="10"
   inkscape:pageopacity="0"
   inkscape:pageshadow="2"
   inkscape:window-width="640"
   inkscape:window-height="480"
   id="namedview30"
   showgrid="false"
   inkscape:zoom="1.4193119"
   inkscape:cx="37.795138"
   inkscape:cy="37.786193"
   inkscape:window-x="0"
   inkscape:window-y="0"
   inkscape:window-maximized="0"
   inkscape:current-layer="svg28" />
	<style
   type="text/css"
   id="style2">
	<![CDATA[
		.st1 {fill:url(#grad0-5);stroke:none;stroke-linecap:butt;stroke-width:34}
		.st2 {fill:none;fill-rule:evenodd;font-size:12px;overflow:visible;stroke-linecap:square;stroke-miterlimit:3}
	]]>
	</style>

	<defs
   id="Patterns_And_Gradients">
		<linearGradient
   id="grad0-5"
   x1="-7.5401677e-06"
   y1="68.020009"
   x2="56.69"
   y2="68.020009"
   gradientUnits="userSpaceOnUse">
			<stop
   offset="0"
   stop-color="#5e9624"
   stop-opacity="1"
   id="stop4" />
			<stop
   offset="0.01"
   stop-color="#5e9724"
   stop-opacity="1"
   id="stop6" />
			<stop
   offset="0.35"
   stop-color="#6cab29"
   stop-opacity="1"
   id="stop8" />
			<stop
   offset="0.68"
   stop-color="#73b82c"
   stop-opacity="1"
   id="stop10" />
			<stop
   offset="1"
   stop-color="#76bc2d"
   stop-opacity="1"
   id="stop12" />
		</linearGradient>
	</defs>
	<g
   id="g26"
   transform="translate(-34.000434,-34.0043)">
		<title
   id="title16">Page-1</title>
		<g
   id="group10369-1"
   transform="translate(34,-34.0157)">
			<title
   id="title18">All Resources</title>
			<g
   id="shape10370-2">
				<title
   id="title20">Sheet.10370</title>
				<path
   d="m 19.84,107.7 h 17.01 v 17.01 H 19.84 Z M 0,85.02 h 17.01 v -17 H 2.37 A 2.37402,2.37402 -180 0 0 0,70.39 Z m 2.37,39.69 H 17.01 V 107.7 H 0 v 14.63 a 2.37402,2.37402 -180 0 0 2.37,2.38 z M 0,104.87 H 17.01 V 87.86 H 0 Z m 39.69,19.84 h 14.66 a 2.37402,2.37402 -180 0 0 2.34,-2.38 V 107.7 h -17 z M 19.84,104.87 H 36.85 V 87.86 H 19.84 Z m 19.85,0 h 17 V 87.86 h -17 z m 0,-36.85 v 17 h 17 V 70.39 a 2.37402,2.37402 -180 0 0 -2.34,-2.37 z m -19.85,17 h 17.01 v -17 H 19.84 Z"
   class="st1"
   id="path22"
   inkscape:connector-curvature="0"
   style="fill:url(#grad0-5);stroke:none;stroke-width:34;stroke-linecap:butt" />
			</g>
		</g>
	</g>
</svg>

<?xml version="1.0" encoding="UTF-8" standalone="no"?>
<!DOCTYPE svg PUBLIC "-//W3C//DTD SVG 1.1//EN" "http://www.w3.org/Graphics/SVG/1.1/DTD/svg11.dtd">
<!-- Generated by Microsoft Visio, SVG Export All Resources.svg Page-1 -->
<svg xmlns="http://www.w3.org/2000/svg" xmlns:xlink="http://www.w3.org/1999/xlink" xmlns:ev="http://www.w3.org/2001/xml-events"
		width="1.73185in" height="1.73206in" viewBox="0 0 124.693 124.709" xml:space="preserve" color-interpolation-filters="sRGB"
		class="st2">
	<style type="text/css">
	<![CDATA[
		.st1 {fill:url(#grad0-5);stroke:none;stroke-linecap:butt;stroke-width:34}
		.st2 {fill:none;fill-rule:evenodd;font-size:12px;overflow:visible;stroke-linecap:square;stroke-miterlimit:3}
	]]>
	</style>

	<defs id="Patterns_And_Gradients">
		<linearGradient id="grad0-5" x1="0" y1="0" x2="1" y2="0" gradientTransform="rotate(-90 0.5 0.5)">
			<stop offset="0" stop-color="#5e9624" stop-opacity="1"/>
			<stop offset="0.01" stop-color="#5e9724" stop-opacity="1"/>
			<stop offset="0.35" stop-color="#6cab29" stop-opacity="1"/>
			<stop offset="0.68" stop-color="#73b82c" stop-opacity="1"/>
			<stop offset="1" stop-color="#76bc2d" stop-opacity="1"/>
		</linearGradient>
	</defs>
	<g>
		<title>Page-1</title>
		<g id="group10138-1" transform="translate(34,-34.0157)">
			<title>All Resources</title>
			<g id="shape10139-2">
				<title>Sheet.10139</title>
				<path d="M19.84 107.7 L36.85 107.7 L36.85 124.71 L19.84 124.71 L19.84 107.7 ZM0 85.02 L17.01 85.02 L17.01 68.02 L2.37
							 68.02 A2.37402 2.37402 -180 0 0 0 70.39 L0 85.02 ZM2.37 124.71 L17.01 124.71 L17.01 107.7 L0 107.7 L0
							 122.33 A2.37402 2.37402 -180 0 0 2.37 124.71 ZM0 104.87 L17.01 104.87 L17.01 87.86 L0 87.86 L0 104.87
							 ZM39.69 124.71 L54.35 124.71 A2.37402 2.37402 -180 0 0 56.69 122.33 L56.69 107.7 L39.69 107.7 L39.69
							 124.71 ZM19.84 104.87 L36.85 104.87 L36.85 87.86 L19.84 87.86 L19.84 104.87 ZM39.69 104.87 L56.69 104.87
							 L56.69 87.86 L39.69 87.86 L39.69 104.87 ZM39.69 68.02 L39.69 85.02 L56.69 85.02 L56.69 70.39 A2.37402
							 2.37402 -180 0 0 54.35 68.02 L39.69 68.02 ZM19.84 85.02 L36.85 85.02 L36.85 68.02 L19.84 68.02 L19.84
							 85.02 Z" class="st1"/>
			</g>
		</g>
	</g>
</svg>
